!!!!SEGMENT: pl-cz--ii-15--011_smacierzylnski--mazur.krn
!!!cenid: 18xx:1161
!!!COM: Smacierzyński
!!!COM-rismID:
!!!CDT:
!!!CNT:
!!!OTL: Mazur
!!!PDT:
!!!AGN: Secular; Mazurka
!!!SMS-siglum: PL-CZ
!!!SMS-shelfmark: II-15
!!!SMS-shelfwork: 011 W
!!!SMS-variant:
!!!SMS-altvar:
!!!NIFC-rismSourceID: 300001521
!!!NIFC-rismChildID: 300001521
!!!NIFC-islandoraID: pl-cz:32533
!!!URL-pdf-islandora: https://repozytorium.nifc.pl/islandora/object/pl-cz%3A32533/datastream/PDF/view
!!!URL-scan: https://polish.musicsources.pl/pl/lokalizacje/galeria/rekopisy/6765/1 @EN{Scan on Polish Music Sources Website} @PL{Skany w portalu Dziedzictwo Muzyki Polskiej w otwartym dostępie}
!!!IIIF:
!!!ONB-nifc: UWAGA: części: 1. Mazur (Morawski), 2. Mazur (Szlagórski), 3. Walc 1, 4. Walc 2, 5. Walc 3, 6. Walc 4, 7. Walc 5, 8. Mazur (Studziński), 9. Kotylion (Szlagórski), 10. Gallop (Szlagórski), 11. Mazur (Smacierzyński). UWAGA: Mazur podpisany W.S lub Wo: Smacierzyński w partii Basso (na okładce), Clarino i Corno
!!!AIN: 1 bass 1 cor 3 empty 1 flt 2 violn
!!!key:
**kern	**kern	**kern	**kern	**kern	**kern	**kern	**kern
*part8	*part7	*part6	*part5	*part4	*part3	*part2	*part1
*staff8	*staff7	*staff6	*staff5	*staff4	*staff3	*staff2	*staff1
*Ibass	*Ivioln	*Ivioln	*Iempty	*Icor	*Iempty	*Iempty	*Iflt
*I"Basso	*I"Violino 2do	*I"Violino 1mo	*I"Clarino in G	*I"Corno 1mo in D	*I"Clarnetto 2do in C	*I"Clarnetto 1mo in C	*I"Flauto Primo
*I'b	*I'vl 2	*I'vl 1	*I'clno in G	*I'cor 1 in D	*I'cl 2 in C	*I'cl 1 in C	*I'fl 1
*clefF4	*	*	*clefG2	*clefG2	*	*	*
*	*	*	*ITrd-1c-2	*ITrd6c10	*	*	*
*k[f#c#]	*	*	*k[f#c#]	*k[f#c#]	*	*	*
*g:	*	*	*g:	*g:	*	*	*
*M3/8	*	*	*M3/8	*M3/8	*	*	*
*	*	*	*all\right	*all\right	*	*	*
*>[A,A,B,B,C,C,A,A,B,B,C,C]	*>[A,A,B,B,C,C,A,A,B,B,C,C]	*>[A,A,B,B,C,C,A,A,B,B,C,C]	*>[A,A,B,B,C,C,A,A,B,B,C,C]	*>[A,A,B,B,C,C,A,A,B,B,C,C]	*>[A,A,B,B,C,C,A,A,B,B,C,C]	*>[A,A,B,B,C,C,A,A,B,B,C,C]	*>[A,A,B,B,C,C,A,A,B,B,C,C]
=1	=1	=1	=1	=1	=1	=1	=1
*>A	*>A	*>A	*>A	*>A	*>A	*>A	*>A
!	!	!	!LO:TX:a:t=in D&colon;	!	!	!	!
8D\	4.ryy	4.ryy	16d/LL	8r	4.ryy	4.ryy	4.ryy
.	.	.	16A/	.	.	.	.
8r	.	.	16A/	8d\	.	.	.
.	.	.	16d/JJ	.	.	.	.
8r	.	.	8f#/	8d\	.	.	.
=2	=2	=2	=2	=2	=2	=2	=2
4D\	4.ryy	4.ryy	16f#/LL	8r	4.ryy	4.ryy	4.ryy
.	.	.	16A/	.	.	.	.
.	.	.	16d/	8d\	.	.	.
.	.	.	16f#/JJ	.	.	.	.
!	!	!	!	!	!	!	!
8r	.	.	8a\	8d\	.	.	.
=3	=3	=3	=3	=3	=3	=3	=3
!	!	!	!LO:TX:a:t=2	!	!	!	!
4AA/	4.ryy	4.ryy	2.r	8r	4.ryy	4.ryy	4.ryy
.	.	.	.	8e\	.	.	.
8r	.	.	.	8e\	.	.	.
=4	=4	=4	=4	=4	=4	=4	=4
4D\	4.ryy	4.ryy	.	8r	4.ryy	4.ryy	4.ryy
.	.	.	.	8d\	.	.	.
8r	.	.	.	8d\	.	.	.
=5	=5	=5	=5	=5	=5	=5	=5
4D\	4.ryy	4.ryy	8r	8r	4.ryy	4.ryy	4.ryy
.	.	.	8d/	8d\	.	.	.
8r	.	.	8d/	8d\	.	.	.
=6	=6	=6	=6	=6	=6	=6	=6
4D\	4.ryy	4.ryy	8r	8r	4.ryy	4.ryy	4.ryy
.	.	.	8d/	8d\	.	.	.
8r	.	.	8d/	8d\	.	.	.
=7	=7	=7	=7	=7	=7	=7	=7
!	!	!	!LO:LB:g=original	!	!	!	!
4AA/	4.ryy	4.ryy	8r	8r	4.ryy	4.ryy	4.ryy
.	.	.	8a/	8e\	.	.	.
8r	.	.	8a/	8e\	.	.	.
=8	=8	=8	=8	=8	=8	=8	=8
8D\L	4.ryy	4.ryy	8d/	8d\	4.ryy	4.ryy	4.ryy
8D\J	.	.	8dd\	8d\	.	.	.
8r	.	.	8r	8r	.	.	.
=9:|!|:	=9:|!|:	=9:|!|:	=9:|!|:	=9:|!|:	=9:|!|:	=9:|!|:	=9:|!|:
!LO:LB:g=original	!	!	!	!LO:LB:g=original	!	!	!
*>B	*>B	*>B	*>B	*>B	*>B	*>B	*>B
4AA/	4.ryy	4.ryy	8r	8r	4.ryy	4.ryy	4.ryy
.	.	.	8a/	8e\	.	.	.
8r	.	.	8a/	8e\	.	.	.
=10	=10	=10	=10	=10	=10	=10	=10
4D\	4.ryy	4.ryy	8r	8r	4.ryy	4.ryy	4.ryy
.	.	.	8d/	8d\	.	.	.
8r	.	.	8d/	8d\	.	.	.
=11	=11	=11	=11	=11	=11	=11	=11
4AA/	4.ryy	4.ryy	8r	8r	4.ryy	4.ryy	4.ryy
.	.	.	8a/	8e\	.	.	.
8r	.	.	8a/	8e\	.	.	.
!!linebreak:original
=12	=12	=12	=12	=12	=12	=12	=12
4D\	4.ryy	4.ryy	8r	8r	4.ryy	4.ryy	4.ryy
.	.	.	8d/	8d\	.	.	.
8r	.	.	8d/	8d\	.	.	.
=13	=13	=13	=13	=13	=13	=13	=13
4AA/	4.ryy	4.ryy	8r	8r	4.ryy	4.ryy	4.ryy
.	.	.	8a/	8e\	.	.	.
8r	.	.	8a/	8e\	.	.	.
=14	=14	=14	=14	=14	=14	=14	=14
4D\	4.ryy	4.ryy	8r	8r	4.ryy	4.ryy	4.ryy
.	.	.	8d/	8d\	.	.	.
8r	.	.	8d/	8d\	.	.	.
=15	=15	=15	=15	=15	=15	=15	=15
!	!	!	!LO:LB:g=original	!	!	!	!
4AA/	4.ryy	4.ryy	8r	8r	4.ryy	4.ryy	4.ryy
.	.	.	8a/	8e\	.	.	.
8r	.	.	8a/	8e\	.	.	.
=16	=16	=16	=16	=16	=16	=16	=16
8D\L	4.ryy	4.ryy	8d/	8d\	4.ryy	4.ryy	4.ryy
8D\J	.	.	8dd\	8d\	.	.	.
8r	.	.	8r	8r	.	.	.
=17:|!|:	=17:|!|:	=17:|!|:	=17:|!|:	=17:|!|:	=17:|!|:	=17:|!|:	=17:|!|:
*>C	*>C	*>C	*>C	*>C	*>C	*>C	*>C
*	*	*	*clefG2	*	*	*	*
*	*	*	*ITrd-4c-5	*	*	*	*
*k[f#]	*	*	*k[f#]	*	*	*	*
!	!	!	!LO:TX:a:t=in G	!	!	!	!
!	!	!	!LO:TX:t=P:problem=zmiana stroju instrumentu	!LO:TX:a:t=8	!	!	!
4GX\	4.ryy	4.ryy	16dd\LL	1.r	4.ryy	4.ryy	4.ryy
!	!	!	!LO:N:vis=32	!	!	!	!
.	.	.	16gg\JJ	.	.	.	.
.	.	.	8b/L	.	.	.	.
8r	.	.	8dd/J	.	.	.	.
=18	=18	=18	=18	=18	=18	=18	=18
4G\	4.ryy	4.ryy	16dd/LL	.	4.ryy	4.ryy	4.ryy
.	.	.	16cc/JJ	.	.	.	.
.	.	.	16ee/LL	.	.	.	.
.	.	.	16dd/JJ	.	.	.	.
8r	.	.	8dd/	.	.	.	.
=19	=19	=19	=19	=19	=19	=19	=19
!LO:LB:g=original	!	!	!LO:TX:a:t=2	!	!	!	!
4D\ 4d	4.ryy	4.ryy	2.r	.	4.ryy	4.ryy	4.ryy
8r	.	.	.	.	.	.	.
=20	=20	=20	=20	=20	=20	=20	=20
4G\	4.ryy	4.ryy	.	.	4.ryy	4.ryy	4.ryy
8r	.	.	.	.	.	.	.
=21	=21	=21	=21	=21	=21	=21	=21
4G\	4.ryy	4.ryy	16dd/LL	1.r	4.ryy	4.ryy	4.ryy
.	.	.	16gg/JJ	.	.	.	.
.	.	.	8b/L	.	.	.	.
8r	.	.	8dd/J	.	.	.	.
=22	=22	=22	=22	=22	=22	=22	=22
4G\	4.ryy	4.ryy	16dd/LL	.	4.ryy	4.ryy	4.ryy
.	.	.	16cc/JJ	.	.	.	.
.	.	.	16ee/LL	.	.	.	.
.	.	.	16dd/JJ	.	.	.	.
8r	.	.	8dd/	.	.	.	.
=23	=23	=23	=23	=23	=23	=23	=23
!	!	!	!LO:LB:g=original	!	!	!	!
!	!	!	!LO:TX:a:t=2	!	!	!	!
4D\ 4d	4.ryy	4.ryy	2.r	.	4.ryy	4.ryy	4.ryy
!LO:TX:t=P:problem=niepełna miara taktu	!	!	!	!	!	!	!
8ryy	.	.	.	.	.	.	.
!!pagebreak:original
=24	=24	=24	=24	=24	=24	=24	=24
4G\	4.ryy	4.ryy	.	.	4.ryy	4.ryy	4.ryy
!LO:TX:b:B:t=D&colon;C Mazur	!	!	!	!	!	!	!
8G\	.	.	.	.	.	.	.
!	!	!	!LO:TX:b:B:t=D&colon;C&colon;	!LO:TX:b:B:t=D&colon;C&colon;	!	!	!
=:|!	=:|!	=:|!	=:|!	=:|!	=:|!	=:|!	=:|!
*-	*-	*-	*-	*-	*-	*-	*-
!!!system-decoration: [(s1,s2,s3)][(s4,s5)][(s6,s7,s8)]
!!!ENC: Krzysztof Stępień
!!!END: 2020-11-09
!!!ENC: Krzysztof Stępień
!!!END: 2021-10-29
!!!YEC: Copyright 2022 Narodowy Instytut Fryderyka Chopina (https://polishscores.org)
!!!YEM: License CC-BY-4.0 (https://creativecommons.org/licenses/by/4.0)
